X:217
T:Corney is Coming
R:reel
Z:transcribed by Dave Marshall
M:C|
K:Dmix
| Add^c defd | cABG E~G3 | A~d3 defg | gffe f~d3
| Add^c defd | cABG E~G3 | A~d3 defg | gffe f~d3 
| defg afdA | c2ef gecA | defg agaf | geag fddf 
| afdf afdf | gece g2fe | defg ~a3f | geag fdd2 |
